src/icons/editor/glyph/RowMoveDownIcon.svg

<svg width="24" height="24" viewBox="0 0 24 24" fill="none" xmlns="http://www.w3.org/2000/svg">
<path fill-rule="evenodd" clip-rule="evenodd" d="M3 5C3 3.89543 3.89543 3 5 3L19 3C20.1046 3 21 3.89543 21 5L21 9C21 10.1046 20.1046 11 19 11L5 11C3.89543 11 3 10.1046 3 9L3 5ZM16.2427 16.7574L12 21L12 20.9999L10.5858 19.5858L7.75732 16.7573L9.17153 15.3431L11 17.1715L11 12.9999L13 12.9999L13 17.1716L14.8285 15.3431L16.2427 16.7574Z" fill="currentColor"/>
</svg>

<svg xmlns="http://www.w3.org/2000/svg" width="24" height="24" fill="currentColor" viewBox="0 0 24 24">
  <path fill-rule="evenodd" d="M3 5a2 2 0 0 1 2-2h14a2 2 0 0 1 2 2v4a2 2 0 0 1-2 2H5a2 2 0 0 1-2-2V5Zm13.243 11.757L12 21l-1.414-1.414-2.829-2.829 1.415-1.414L11 17.172V13h2v4.172l1.829-1.829 1.414 1.414Z" clip-rule="evenodd"/>
</svg>
